static/img/device/component-screws2.svg

<svg width="77" height="47" viewBox="0 0 77 47" fill="none" xmlns="http://www.w3.org/2000/svg">
<g clip-path="url(#clip0_693_7827)">
<path d="M24.97 20.01V20.89C25.89 21.24 26.37 22 26.38 22.45C26.4 22.98 25.9 23.59 25.01 24.18L24.97 25.01C25.89 25.36 26.37 26.12 26.38 26.57C26.4 27.1 25.9 27.71 25.01 28.3L24.97 29.13C25.89 29.48 26.37 30.24 26.38 30.69C26.4 31.22 25.9 31.83 25.01 32.42L24.97 33.25C25.89 33.6 26.37 34.36 26.38 34.81C26.4 35.34 25.9 35.95 25.01 36.54L24.97 37.37C25.89 37.72 26.37 38.48 26.38 38.93C26.4 39.46 25.9 40.07 25.01 40.66L24.97 40.69V42.52C24.97 44.58 21.84 46.26 17.99 46.26C14.14 46.26 11.01 44.58 11.01 42.52V42C10.03 41.56 9.45 41.02 9.43 40.48C9.42 40.02 9.98 39.23 11.02 38.77V37.88C10.04 37.44 9.46 36.9 9.44 36.36C9.43 35.9 9.99 35.11 11.03 34.65V33.76C10.05 33.32 9.47 32.78 9.45 32.24C9.44 31.77 10 30.99 11.04 30.53V29.64C10.06 29.2 9.48 28.66 9.46 28.12C9.45 27.65 10.01 26.87 11.05 26.41V25.52C10.07 25.08 9.49 24.54 9.47 24C9.46 23.54 10.02 22.75 11.06 22.29V20.04" fill="white"/>
<path d="M24.97 20.01V20.89C25.89 21.24 26.37 22 26.38 22.45C26.4 22.98 25.9 23.59 25.01 24.18L24.97 25.01C25.89 25.36 26.37 26.12 26.38 26.57C26.4 27.1 25.9 27.71 25.01 28.3L24.97 29.13C25.89 29.48 26.37 30.24 26.38 30.69C26.4 31.22 25.9 31.83 25.01 32.42L24.97 33.25C25.89 33.6 26.37 34.36 26.38 34.81C26.4 35.34 25.9 35.95 25.01 36.54L24.97 37.37C25.89 37.72 26.37 38.48 26.38 38.93C26.4 39.46 25.9 40.07 25.01 40.66L24.97 40.69V42.52C24.97 44.58 21.84 46.26 17.99 46.26C14.14 46.26 11.01 44.58 11.01 42.52V42C10.03 41.56 9.45 41.02 9.43 40.48C9.42 40.02 9.98 39.23 11.02 38.77V37.88C10.04 37.44 9.46 36.9 9.44 36.36C9.43 35.9 9.99 35.11 11.03 34.65V33.76C10.05 33.32 9.47 32.78 9.45 32.24C9.44 31.77 10 30.99 11.04 30.53V29.64C10.06 29.2 9.48 28.66 9.46 28.12C9.45 27.65 10.01 26.87 11.05 26.41V25.52C10.07 25.08 9.49 24.54 9.47 24C9.46 23.54 10.02 22.75 11.06 22.29V20.04" stroke="black" stroke-width="0.5" stroke-linecap="round" stroke-linejoin="round"/>
<path d="M1.27003 14.95C-0.109971 11.8 -0.129971 8.92 1.46003 5.85C3.14003 2.65 9.90003 0.25 17.99 0.25C26.08 0.25 32.87 2.66 34.53 5.87C35.72 8.19 36.12 11.85 34.83 14.69C33.24 18 26.42 20.66 18 20.66C9.58003 20.66 2.90003 18.21 1.27003 14.95Z" fill="white" stroke="black" stroke-width="0.5" stroke-linecap="round" stroke-linejoin="round"/>
<path d="M34.72 6.33C34.84 6.68 34.91 7.03 34.91 7.4C34.91 11.35 27.33 14.55 17.99 14.55C8.65001 14.55 1.07001 11.35 1.07001 7.4C1.07001 7.05 1.13001 6.71 1.24001 6.37" stroke="black" stroke-width="0.3" stroke-linecap="round" stroke-linejoin="round"/>
<path d="M25.0201 40.65C23.5501 41.63 21.0301 42.54 18.0701 42.83C15.1601 43.12 12.5701 42.69 10.9901 41.98" stroke="black" stroke-width="0.3" stroke-linecap="round" stroke-linejoin="round"/>
<path d="M24.97 37.89C25.01 38.97 21.88 40.39 18.06 40.75C14.24 41.12 11.03 40.36 11 39.28" stroke="black" stroke-width="0.3" stroke-linecap="round" stroke-linejoin="round"/>
<path d="M25.0201 36.54C23.5501 37.52 21.0301 38.43 18.0701 38.72C15.1601 39.01 12.5701 38.58 10.9901 37.87" stroke="black" stroke-width="0.3" stroke-linecap="round" stroke-linejoin="round"/>
<path d="M24.97 33.77C25.01 34.85 21.88 36.27 18.06 36.63C14.24 37 11.03 36.25 11 35.16" stroke="black" stroke-width="0.3" stroke-linecap="round" stroke-linejoin="round"/>
<path d="M25.0201 32.42C23.5501 33.4 21.0301 34.31 18.0701 34.6C15.1601 34.89 12.5701 34.45 10.9901 33.75" stroke="black" stroke-width="0.3" stroke-linecap="round" stroke-linejoin="round"/>
<path d="M24.97 29.65C25.01 30.74 21.88 32.15 18.06 32.51C14.24 32.88 11.03 32.13 11 31.04" stroke="black" stroke-width="0.3" stroke-linecap="round" stroke-linejoin="round"/>
<path d="M25.0201 28.3C23.5501 29.28 21.0301 30.19 18.0701 30.48C15.1601 30.77 12.5701 30.33 10.9901 29.63" stroke="black" stroke-width="0.3" stroke-linecap="round" stroke-linejoin="round"/>
<path d="M24.97 25.53C25.01 26.62 21.88 28.03 18.06 28.39C14.24 28.76 11.03 28.01 11 26.92" stroke="black" stroke-width="0.3" stroke-linecap="round" stroke-linejoin="round"/>
<path d="M25.0201 24.18C23.5501 25.16 21.0301 26.07 18.0701 26.36C15.1601 26.65 12.5701 26.22 10.9901 25.51" stroke="black" stroke-width="0.3" stroke-linecap="round" stroke-linejoin="round"/>
<path d="M24.97 21.42C25.01 22.5 21.88 23.92 18.06 24.28C14.24 24.65 11.03 23.89 11 22.81" stroke="black" stroke-width="0.3" stroke-linecap="round" stroke-linejoin="round"/>
<path d="M13.62 1.83999C14.07 3.08999 14.85 4.30999 8.79004 4.62999L9.42004 7.24999C13.87 6.89999 15.61 6.67999 17 9.56999L21.83 9.27999C21.08 6.78999 21.66 5.94999 26.95 5.69999L26.02 3.68999C22.73 3.84999 20.53 4.47999 19.15 1.53999L13.62 1.82999V1.83999Z" stroke="black" stroke-width="0.3" stroke-linecap="round" stroke-linejoin="round"/>
<path d="M65.47 20.01V20.89C66.39 21.24 66.87 22 66.88 22.45C66.9 22.98 66.4 23.59 65.51 24.18L65.47 25.01C66.39 25.36 66.87 26.12 66.88 26.57C66.9 27.1 66.4 27.71 65.51 28.3L65.47 29.13C66.39 29.48 66.87 30.24 66.88 30.69C66.9 31.22 66.4 31.83 65.51 32.42L65.47 33.25C66.39 33.6 66.87 34.36 66.88 34.81C66.9 35.34 66.4 35.95 65.51 36.54L65.47 37.37C66.39 37.72 66.87 38.48 66.88 38.93C66.9 39.46 66.4 40.07 65.51 40.66L65.47 40.69V42.52C65.47 44.58 62.34 46.26 58.49 46.26C54.64 46.26 51.51 44.58 51.51 42.52V42C50.53 41.56 49.95 41.02 49.93 40.48C49.92 40.02 50.48 39.23 51.52 38.77V37.88C50.54 37.44 49.96 36.9 49.94 36.36C49.93 35.9 50.49 35.11 51.53 34.65V33.76C50.55 33.32 49.97 32.78 49.95 32.24C49.94 31.77 50.5 30.99 51.54 30.53V29.64C50.56 29.2 49.98 28.66 49.96 28.12C49.95 27.65 50.51 26.87 51.55 26.41V25.52C50.57 25.08 49.99 24.54 49.97 24C49.96 23.54 50.52 22.75 51.56 22.29V20.04" fill="white"/>
<path d="M65.47 20.01V20.89C66.39 21.24 66.87 22 66.88 22.45C66.9 22.98 66.4 23.59 65.51 24.18L65.47 25.01C66.39 25.36 66.87 26.12 66.88 26.57C66.9 27.1 66.4 27.71 65.51 28.3L65.47 29.13C66.39 29.48 66.87 30.24 66.88 30.69C66.9 31.22 66.4 31.83 65.51 32.42L65.47 33.25C66.39 33.6 66.87 34.36 66.88 34.81C66.9 35.34 66.4 35.95 65.51 36.54L65.47 37.37C66.39 37.72 66.87 38.48 66.88 38.93C66.9 39.46 66.4 40.07 65.51 40.66L65.47 40.69V42.52C65.47 44.58 62.34 46.26 58.49 46.26C54.64 46.26 51.51 44.58 51.51 42.52V42C50.53 41.56 49.95 41.02 49.93 40.48C49.92 40.02 50.48 39.23 51.52 38.77V37.88C50.54 37.44 49.96 36.9 49.94 36.36C49.93 35.9 50.49 35.11 51.53 34.65V33.76C50.55 33.32 49.97 32.78 49.95 32.24C49.94 31.77 50.5 30.99 51.54 30.53V29.64C50.56 29.2 49.98 28.66 49.96 28.12C49.95 27.65 50.51 26.87 51.55 26.41V25.52C50.57 25.08 49.99 24.54 49.97 24C49.96 23.54 50.52 22.75 51.56 22.29V20.04" stroke="black" stroke-width="0.5" stroke-linecap="round" stroke-linejoin="round"/>
<path d="M41.77 14.95C40.39 11.8 40.37 8.92999 41.96 5.85999C43.64 2.65999 50.4 0.259995 58.48 0.259995C66.56 0.259995 73.36 2.66999 75.02 5.87999C76.21 8.19999 76.61 11.86 75.32 14.7C73.73 18.01 66.91 20.67 58.49 20.67C50.07 20.67 43.41 18.22 41.77 14.95Z" fill="white" stroke="black" stroke-width="0.5" stroke-linecap="round" stroke-linejoin="round"/>
<path d="M75.22 6.32999C75.34 6.67999 75.41 7.02999 75.41 7.39999C75.41 11.35 67.83 14.55 58.49 14.55C49.15 14.55 41.57 11.35 41.57 7.39999C41.57 7.04999 41.63 6.70999 41.74 6.36999" stroke="black" stroke-width="0.3" stroke-linecap="round" stroke-linejoin="round"/>
<path d="M65.52 40.65C64.05 41.63 61.53 42.54 58.57 42.83C55.66 43.12 53.0701 42.69 51.4901 41.98" stroke="black" stroke-width="0.3" stroke-linecap="round" stroke-linejoin="round"/>
<path d="M65.47 37.89C65.51 38.97 62.38 40.39 58.56 40.75C54.74 41.12 51.53 40.36 51.5 39.28" stroke="black" stroke-width="0.3" stroke-linecap="round" stroke-linejoin="round"/>
<path d="M65.52 36.54C64.05 37.52 61.53 38.43 58.57 38.72C55.66 39.01 53.0701 38.58 51.4901 37.87" stroke="black" stroke-width="0.3" stroke-linecap="round" stroke-linejoin="round"/>
<path d="M65.47 33.77C65.51 34.85 62.38 36.27 58.56 36.63C54.74 37 51.53 36.25 51.5 35.16" stroke="black" stroke-width="0.3" stroke-linecap="round" stroke-linejoin="round"/>
<path d="M65.52 32.42C64.05 33.4 61.53 34.31 58.57 34.6C55.66 34.89 53.0701 34.45 51.4901 33.75" stroke="black" stroke-width="0.3" stroke-linecap="round" stroke-linejoin="round"/>
<path d="M65.47 29.65C65.51 30.74 62.38 32.15 58.56 32.51C54.74 32.88 51.53 32.13 51.5 31.04" stroke="black" stroke-width="0.3" stroke-linecap="round" stroke-linejoin="round"/>
<path d="M65.52 28.3C64.05 29.28 61.53 30.19 58.57 30.48C55.66 30.77 53.0701 30.33 51.4901 29.63" stroke="black" stroke-width="0.3" stroke-linecap="round" stroke-linejoin="round"/>
<path d="M65.47 25.53C65.51 26.62 62.38 28.03 58.56 28.39C54.74 28.76 51.53 28.01 51.5 26.92" stroke="black" stroke-width="0.3" stroke-linecap="round" stroke-linejoin="round"/>
<path d="M65.52 24.18C64.05 25.16 61.53 26.07 58.57 26.36C55.66 26.65 53.0701 26.22 51.4901 25.51" stroke="black" stroke-width="0.3" stroke-linecap="round" stroke-linejoin="round"/>
<path d="M65.47 21.42C65.51 22.5 62.38 23.92 58.56 24.28C54.74 24.65 51.53 23.89 51.5 22.81" stroke="black" stroke-width="0.3" stroke-linecap="round" stroke-linejoin="round"/>
<path d="M54.12 1.83999C54.57 3.08999 55.35 4.30999 49.29 4.62999L49.92 7.24999C54.37 6.89999 56.11 6.67999 57.5 9.56999L62.33 9.27999C61.58 6.78999 62.16 5.94999 67.45 5.69999L66.52 3.68999C63.23 3.84999 61.03 4.47999 59.65 1.53999L54.12 1.82999V1.83999Z" stroke="black" stroke-width="0.3" stroke-linecap="round" stroke-linejoin="round"/>
</g>
<defs>
<clipPath id="clip0_693_7827">
<rect width="76.37" height="46.51" fill="white"/>
</clipPath>
</defs>
</svg>

<svg xmlns="http://www.w3.org/2000/svg" width="77" height="47" fill="none" viewBox="0 0 77 47"><g clip-path="url(#a)"><path fill="#fff" d="M24.97 20.01v.88c.92.35 1.4 1.11 1.41 1.56.02.53-.48 1.14-1.37 1.73l-.04.83c.92.35 1.4 1.11 1.41 1.56.02.53-.48 1.14-1.37 1.73l-.04.83c.92.35 1.4 1.11 1.41 1.56.02.53-.48 1.14-1.37 1.73l-.04.83c.92.35 1.4 1.11 1.41 1.56.02.53-.48 1.14-1.37 1.73l-.04.83c.92.35 1.4 1.11 1.41 1.56.02.53-.48 1.14-1.37 1.73l-.04.03v1.83c0 2.06-3.13 3.74-6.98 3.74s-6.98-1.68-6.98-3.74V42c-.98-.44-1.56-.98-1.58-1.52-.01-.46.55-1.25 1.59-1.71v-.89c-.98-.44-1.56-.98-1.58-1.52-.01-.46.55-1.25 1.59-1.71v-.89c-.98-.44-1.56-.98-1.58-1.52-.01-.47.55-1.25 1.59-1.71v-.89c-.98-.44-1.56-.98-1.58-1.52-.01-.47.55-1.25 1.59-1.71v-.89c-.98-.44-1.56-.98-1.58-1.52-.01-.46.55-1.25 1.59-1.71v-2.25"/><path stroke="#000" stroke-linecap="round" stroke-linejoin="round" stroke-width=".5" d="M24.97 20.01v.88c.92.35 1.4 1.11 1.41 1.56.02.53-.48 1.14-1.37 1.73l-.04.83c.92.35 1.4 1.11 1.41 1.56.02.53-.48 1.14-1.37 1.73l-.04.83c.92.35 1.4 1.11 1.41 1.56.02.53-.48 1.14-1.37 1.73l-.04.83c.92.35 1.4 1.11 1.41 1.56.02.53-.48 1.14-1.37 1.73l-.04.83c.92.35 1.4 1.11 1.41 1.56.02.53-.48 1.14-1.37 1.73l-.04.03v1.83c0 2.06-3.13 3.74-6.98 3.74s-6.98-1.68-6.98-3.74V42c-.98-.44-1.56-.98-1.58-1.52-.01-.46.55-1.25 1.59-1.71v-.89c-.98-.44-1.56-.98-1.58-1.52-.01-.46.55-1.25 1.59-1.71v-.89c-.98-.44-1.56-.98-1.58-1.52-.01-.47.55-1.25 1.59-1.71v-.89c-.98-.44-1.56-.98-1.58-1.52-.01-.47.55-1.25 1.59-1.71v-.89c-.98-.44-1.56-.98-1.58-1.52-.01-.46.55-1.25 1.59-1.71v-2.25"/><path fill="#fff" stroke="#000" stroke-linecap="round" stroke-linejoin="round" stroke-width=".5" d="M1.27 14.95c-1.38-3.15-1.4-6.03.19-9.1C3.14 2.65 9.9.25 17.99.25s14.88 2.41 16.54 5.62c1.19 2.32 1.59 5.98.3 8.82C33.24 18 26.42 20.66 18 20.66S2.9 18.21 1.27 14.95"/><path stroke="#000" stroke-linecap="round" stroke-linejoin="round" stroke-width=".3" d="M34.72 6.33c.12.35.19.7.19 1.07 0 3.95-7.58 7.15-16.92 7.15S1.07 11.35 1.07 7.4c0-.35.06-.69.17-1.03M25.02 40.65c-1.47.98-3.99 1.89-6.95 2.18-2.91.29-5.5-.14-7.08-.85M24.97 37.89c.04 1.08-3.09 2.5-6.91 2.86-3.82.37-7.03-.39-7.06-1.47"/><path stroke="#000" stroke-linecap="round" stroke-linejoin="round" stroke-width=".3" d="M25.02 36.54c-1.47.98-3.99 1.89-6.95 2.18-2.91.29-5.5-.14-7.08-.85M24.97 33.77c.04 1.08-3.09 2.5-6.91 2.86-3.82.37-7.03-.38-7.06-1.47"/><path stroke="#000" stroke-linecap="round" stroke-linejoin="round" stroke-width=".3" d="M25.02 32.42c-1.47.98-3.99 1.89-6.95 2.18-2.91.29-5.5-.15-7.08-.85M24.97 29.65c.04 1.09-3.09 2.5-6.91 2.86-3.82.37-7.03-.38-7.06-1.47"/><path stroke="#000" stroke-linecap="round" stroke-linejoin="round" stroke-width=".3" d="M25.02 28.3c-1.47.98-3.99 1.89-6.95 2.18-2.91.29-5.5-.15-7.08-.85M24.97 25.53c.04 1.09-3.09 2.5-6.91 2.86-3.82.37-7.03-.38-7.06-1.47"/><path stroke="#000" stroke-linecap="round" stroke-linejoin="round" stroke-width=".3" d="M25.02 24.18c-1.47.98-3.99 1.89-6.95 2.18-2.91.29-5.5-.14-7.08-.85M24.97 21.42c.04 1.08-3.09 2.5-6.91 2.86-3.82.37-7.03-.39-7.06-1.47M13.62 1.84c.45 1.25 1.23 2.47-4.83 2.79l.63 2.62c4.45-.35 6.19-.57 7.58 2.32l4.83-.29c-.75-2.49-.17-3.33 5.12-3.58l-.93-2.01c-3.29.16-5.49.79-6.87-2.15l-5.53.29z"/><path fill="#fff" d="M65.47 20.01v.88c.92.35 1.4 1.11 1.41 1.56.02.53-.48 1.14-1.37 1.73l-.04.83c.92.35 1.4 1.11 1.41 1.56.02.53-.48 1.14-1.37 1.73l-.04.83c.92.35 1.4 1.11 1.41 1.56.02.53-.48 1.14-1.37 1.73l-.04.83c.92.35 1.4 1.11 1.41 1.56.02.53-.48 1.14-1.37 1.73l-.04.83c.92.35 1.4 1.11 1.41 1.56.02.53-.48 1.14-1.37 1.73l-.04.03v1.83c0 2.06-3.13 3.74-6.98 3.74s-6.98-1.68-6.98-3.74V42c-.98-.44-1.56-.98-1.58-1.52-.01-.46.55-1.25 1.59-1.71v-.89c-.98-.44-1.56-.98-1.58-1.52-.01-.46.55-1.25 1.59-1.71v-.89c-.98-.44-1.56-.98-1.58-1.52-.01-.47.55-1.25 1.59-1.71v-.89c-.98-.44-1.56-.98-1.58-1.52-.01-.47.55-1.25 1.59-1.71v-.89c-.98-.44-1.56-.98-1.58-1.52-.01-.46.55-1.25 1.59-1.71v-2.25"/><path stroke="#000" stroke-linecap="round" stroke-linejoin="round" stroke-width=".5" d="M65.47 20.01v.88c.92.35 1.4 1.11 1.41 1.56.02.53-.48 1.14-1.37 1.73l-.04.83c.92.35 1.4 1.11 1.41 1.56.02.53-.48 1.14-1.37 1.73l-.04.83c.92.35 1.4 1.11 1.41 1.56.02.53-.48 1.14-1.37 1.73l-.04.83c.92.35 1.4 1.11 1.41 1.56.02.53-.48 1.14-1.37 1.73l-.04.83c.92.35 1.4 1.11 1.41 1.56.02.53-.48 1.14-1.37 1.73l-.04.03v1.83c0 2.06-3.13 3.74-6.98 3.74s-6.98-1.68-6.98-3.74V42c-.98-.44-1.56-.98-1.58-1.52-.01-.46.55-1.25 1.59-1.71v-.89c-.98-.44-1.56-.98-1.58-1.52-.01-.46.55-1.25 1.59-1.71v-.89c-.98-.44-1.56-.98-1.58-1.52-.01-.47.55-1.25 1.59-1.71v-.89c-.98-.44-1.56-.98-1.58-1.52-.01-.47.55-1.25 1.59-1.71v-.89c-.98-.44-1.56-.98-1.58-1.52-.01-.46.55-1.25 1.59-1.71v-2.25"/><path fill="#fff" stroke="#000" stroke-linecap="round" stroke-linejoin="round" stroke-width=".5" d="M41.77 14.95c-1.38-3.15-1.4-6.02.19-9.09 1.68-3.2 8.44-5.6 16.52-5.6s14.88 2.41 16.54 5.62c1.19 2.32 1.59 5.98.3 8.82-1.59 3.31-8.41 5.97-16.83 5.97s-15.08-2.45-16.72-5.72"/><path stroke="#000" stroke-linecap="round" stroke-linejoin="round" stroke-width=".3" d="M75.22 6.33c.12.35.19.7.19 1.07 0 3.95-7.58 7.15-16.92 7.15s-16.92-3.2-16.92-7.15c0-.35.06-.69.17-1.03M65.52 40.65c-1.47.98-3.99 1.89-6.95 2.18-2.91.29-5.5-.14-7.08-.85M65.47 37.89c.04 1.08-3.09 2.5-6.91 2.86-3.82.37-7.03-.39-7.06-1.47"/><path stroke="#000" stroke-linecap="round" stroke-linejoin="round" stroke-width=".3" d="M65.52 36.54c-1.47.98-3.99 1.89-6.95 2.18-2.91.29-5.5-.14-7.08-.85M65.47 33.77c.04 1.08-3.09 2.5-6.91 2.86-3.82.37-7.03-.38-7.06-1.47"/><path stroke="#000" stroke-linecap="round" stroke-linejoin="round" stroke-width=".3" d="M65.52 32.42c-1.47.98-3.99 1.89-6.95 2.18-2.91.29-5.5-.15-7.08-.85M65.47 29.65c.04 1.09-3.09 2.5-6.91 2.86-3.82.37-7.03-.38-7.06-1.47"/><path stroke="#000" stroke-linecap="round" stroke-linejoin="round" stroke-width=".3" d="M65.52 28.3c-1.47.98-3.99 1.89-6.95 2.18-2.91.29-5.5-.15-7.08-.85M65.47 25.53c.04 1.09-3.09 2.5-6.91 2.86-3.82.37-7.03-.38-7.06-1.47"/><path stroke="#000" stroke-linecap="round" stroke-linejoin="round" stroke-width=".3" d="M65.52 24.18c-1.47.98-3.99 1.89-6.95 2.18-2.91.29-5.5-.14-7.08-.85M65.47 21.42c.04 1.08-3.09 2.5-6.91 2.86-3.82.37-7.03-.39-7.06-1.47M54.12 1.84c.45 1.25 1.23 2.47-4.83 2.79l.63 2.62c4.45-.35 6.19-.57 7.58 2.32l4.83-.29c-.75-2.49-.17-3.33 5.12-3.58l-.93-2.01c-3.29.16-5.49.79-6.87-2.15l-5.53.29z"/></g><defs><clipPath id="a"><path fill="#fff" d="M0 0h76.37v46.51H0z"/></clipPath></defs></svg>
